public/logo.svg

<svg xmlns="http://www.w3.org/2000/svg" id="memory-coffee" width="800" height="800" fill="#6a502fff" viewBox="0 0 22 22"><path d="M1 20v-2h16v2zM2 3h17v1h1v6h-1v1h-3v3h-1v1h-1v1H4v-1H3v-1H2zm14 2v4h2V5zM4 5v8h1v1h8v-1h1V5z"/></svg>

<?xml version="1.0" encoding="utf-8"?><!-- Uploaded to: SVG Repo, www.svgrepo.com, Generator: SVG Repo Mixer Tools -->
<svg fill="#6a502fff" width="800px" height="800px" viewBox="0 0 22 22" xmlns="http://www.w3.org/2000/svg" id="memory-coffee"><path d="M1 20V18H17V20H1M2 3H19V4H20V10H19V11H16V14H15V15H14V16H4V15H3V14H2V3M16 5V9H18V5H16M4 5V13H5V14H13V13H14V5H4Z" /></svg>
